svg/regular/bx-slider.svg

<svg xmlns="http://www.w3.org/2000/svg" width="24" height="24"><path d="M13 5h9v2h-9zM2 7h7v2h2V3H9v2H2zm7 10h13v2H9zm10-6h3v2h-3zm-2 4V9.012h-2V11H2v2h13v2zM7 21v-6H5v2H2v2h3v2z"/></svg>

<svg xmlns="http://www.w3.org/2000/svg" width="24" height="24" viewBox="0 0 24 24"><path d="M13 5H22V7H13zM2 7L9 7 9 9 11 9 11 3 9 3 9 5 2 5zM9 17H22V19H9zM19 11H22V13H19zM17 15L17 9.012 15 9.012 15 11 2 11 2 13 15 13 15 15zM7 21L7 15 5 15 5 17 2 17 2 19 5 19 5 21z"/></svg>
